svg/close.svg

<svg xmlns="http://www.w3.org/2000/svg" viewBox="0 0 62 62" enable-background="new 0 0 62 62"><style type="text/css">.st0{fill:#333333;}</style><title>close</title><desc>Created with Sketch.</desc><path class="st0" d="M61.1 56.9l-25.8-25.8 25.5-25.5c1.2-1.2 1.2-3.1 0-4.2-1.2-1.2-3.1-1.2-4.2 0l-25.5 25.4-25.2-25.1c-1.2-1.2-3.1-1.2-4.2 0-1.2 1.2-1.2 3.1 0 4.2l25.1 25.1-25.4 25.5c-1.2 1.2-1.2 3.1 0 4.2 1.2 1.2 3.1 1.2 4.2 0l25.5-25.5 25.8 25.8c1.2 1.2 3.1 1.2 4.2 0 1.2-1.1 1.2-3 0-4.1z"/></svg>

<svg xmlns="http://www.w3.org/2000/svg" viewBox="0 0 62 62"><path d="M61.1 56.9L35.3 31.1 60.8 5.6c1.2-1.2 1.2-3.1 0-4.2-1.2-1.2-3.1-1.2-4.2 0L31.1 26.8 5.9 1.7C4.7.5 2.8.5 1.7 1.7.5 2.9.5 4.8 1.7 5.9L26.8 31 1.4 56.5c-1.2 1.2-1.2 3.1 0 4.2 1.2 1.2 3.1 1.2 4.2 0l25.5-25.5L56.9 61c1.2 1.2 3.1 1.2 4.2 0 1.2-1.1 1.2-3 0-4.1z" fill="#333"/></svg>
